lib/flags/m/364.svg

<svg xmlns="http://www.w3.org/2000/svg" fill="none" viewBox="0 0 20 15"><mask id="364_svg__a" width="20" height="15" x="0" y="0" mask-type="alpha" maskUnits="userSpaceOnUse"><path fill="#fff" d="M0 0H20V15H0z"/></mask><g mask="url(#364_svg__a)"><path fill="#F7FCFF" fill-rule="evenodd" d="M0 0V15H20V0H0Z" clip-rule="evenodd"/><mask id="364_svg__b" width="20" height="15" x="0" y="0" mask-type="alpha" maskUnits="userSpaceOnUse"><path fill="#fff" fill-rule="evenodd" d="M0 0V15H20V0H0Z" clip-rule="evenodd"/></mask><g mask="url(#364_svg__b)"><path fill="#5EAA22" fill-rule="evenodd" d="M0 0V5H20V0H0Z" clip-rule="evenodd"/><path fill="#E31D1C" fill-rule="evenodd" d="M0 10V15H20V10H0Z" clip-rule="evenodd"/><path stroke="#F7FCFF" stroke-width=".625" d="M.232866 10.8544H-1.18842M-1.20306 11.4171V11.0908H-.740397V11.4061H-.27288V11.0912H-.515435M.211416 11.4039H-.0241699V11.0977H.471849V10.8469 11.4039H.696309V10.8469M.94881 10.88C.94881 10.9108.94881 11.4062.94881 11.4062H.71582M2.67189 10.8544H1.25061M1.23596 11.4171V11.0908H1.69863V11.4061H2.16615V11.0912H1.92359M2.69402 11.4039H2.45844V11.0977H2.95445V10.8469 11.4039H3.17891V10.8469M3.43142 10.88C3.43142 10.9108 3.43142 11.4062 3.43142 11.4062H3.19843M5.1545 10.8544H3.73322M3.71857 11.4171V11.0908H4.18123V11.4061H4.64875V11.0912H4.4062M5.13305 11.4039H4.89746V11.0977H5.39348V10.8469 11.4039H5.61794V10.8469M5.87044 10.88C5.87044 10.9108 5.87044 11.4062 5.87044 11.4062H5.63745M7.59352 10.8544H6.17224M6.15759 11.4171V11.0908H6.62026V11.4061H7.08778V11.0912H6.84522M7.57201 11.4039H7.33643V11.0977H7.83244V10.8469 11.4039H8.0569V10.8469M8.30941 10.88C8.30941 10.9108 8.30941 11.4062 8.30941 11.4062H8.07642M10.0325 10.8544H8.61121M8.59656 11.4171V11.0908H9.05922V11.4061H9.52674V11.0912H9.28419M10.0546 11.4039H9.81903V11.0977H10.315V10.8469 11.4039H10.5395V10.8469M10.792 10.88C10.792 10.9108 10.792 11.4062 10.792 11.4062H10.559M12.5151 10.8544H11.0938M11.0792 11.4171V11.0908H11.5418V11.4061H12.0093V11.0912H11.7668M12.5372 11.4039H12.3016V11.0977H12.7977V10.8469 11.4039H13.0221V10.8469M13.2746 10.88C13.2746 10.9108 13.2746 11.4062 13.2746 11.4062H13.0416M14.9977 10.8544H13.5764M13.5618 11.4171V11.0908H14.0244V11.4061H14.492V11.0912H14.2494M15.0198 11.4039H14.7842V11.0977H15.2802V10.8469 11.4039H15.5047V10.8469M15.7572 10.88C15.7572 10.9108 15.7572 11.4062 15.7572 11.4062H15.5242M17.4802 10.8544H16.059M16.0443 11.4171V11.0908H16.507V11.4061H16.9745V11.0912H16.7319M17.4588 11.4039H17.2232V11.0977H17.7192V10.8469 11.4039H17.9437V10.8469M18.1962 10.88C18.1962 10.9108 18.1962 11.4062 18.1962 11.4062H17.9632M19.9193 10.8544H18.498M18.4833 11.4171V11.0908H18.946V11.4061H19.4135V11.0912H19.171M20.0285 11.4039H19.7929V11.0977H20.2889V10.8469 11.4039H20.5134V10.8469M.232866 3.22937H-1.18842M-1.20306 3.79207V3.46582H-.740397V3.78112H-.27288V3.46617H-.515435M.211416 3.77886H-.0241699V3.47271H.471849V3.22192 3.77886H.696309V3.22192M.94881 3.255C.94881 3.28579.94881 3.78116.94881 3.78116H.71582M2.67189 3.22937H1.25061M1.23596 3.79207V3.46582H1.69863V3.78112H2.16615V3.46617H1.92359M2.69402 3.77886H2.45844V3.47271H2.95445V3.22192 3.77886H3.17891V3.22192M3.43142 3.255C3.43142 3.28579 3.43142 3.78116 3.43142 3.78116H3.19843M5.1545 3.22937H3.73322M3.71857 3.79207V3.46582H4.18123V3.78112H4.64875V3.46617H4.4062M5.13305 3.77886H4.89746V3.47271H5.39348V3.22192 3.77886H5.61794V3.22192M5.87044 3.255C5.87044 3.28579 5.87044 3.78116 5.87044 3.78116H5.63745M7.59352 3.22937H6.17224M6.15759 3.79207V3.46582H6.62026V3.78112H7.08778V3.46617H6.84522M7.57201 3.77886H7.33643V3.47271H7.83244V3.22192 3.77886H8.0569V3.22192M8.30941 3.255C8.30941 3.28579 8.30941 3.78116 8.30941 3.78116H8.07642M10.0325 3.22937H8.61121M8.59656 3.79207V3.46582H9.05922V3.78112H9.52674V3.46617H9.28419M10.0546 3.77886H9.81903V3.47271H10.315V3.22192 3.77886H10.5395V3.22192M10.792 3.255C10.792 3.28579 10.792 3.78116 10.792 3.78116H10.559M12.5151 3.22937H11.0938M11.0792 3.79207V3.46582H11.5418V3.78112H12.0093V3.46617H11.7668M12.5372 3.77886H12.3016V3.47271H12.7977V3.22192 3.77886H13.0221V3.22192M13.2746 3.255C13.2746 3.28579 13.2746 3.78116 13.2746 3.78116H13.0416M14.9977 3.22937H13.5764M13.5618 3.79207V3.46582H14.0244V3.78112H14.492V3.46617H14.2494M15.0198 3.77886H14.7842V3.47271H15.2802V3.22192 3.77886H15.5047V3.22192M15.7572 3.255C15.7572 3.28579 15.7572 3.78116 15.7572 3.78116H15.5242M17.4802 3.22937H16.059M16.0443 3.79207V3.46582H16.507V3.78112H16.9745V3.46617H16.7319M17.4588 3.77886H17.2232V3.47271H17.7192V3.22192 3.77886H17.9437V3.22192M18.1962 3.255C18.1962 3.28579 18.1962 3.78116 18.1962 3.78116H17.9632M19.9193 3.22937H18.498M18.4833 3.79207V3.46582H18.946V3.78112H19.4135V3.46617H19.171M20.0285 3.77886H19.7929V3.47271H20.2889V3.22192 3.77886H20.5134V3.22192"/><path fill="#E31D1C" fill-rule="evenodd" d="M9.1289 5.15625C9.1289 5.15625 9.39598 5.29688 9.66934 5.29688C9.9427 5.29688 10.2177 5.15625 10.2177 5.15625V5.34375C10.2177 5.34375 9.91748 5.48438 9.65155 5.48438C9.38561 5.48438 9.1289 5.34375 9.1289 5.34375V5.15625ZM7.16022 7.36913C7.16022 6.25788 8.68646 5.53125 8.68646 5.53125C8.68646 5.53125 7.80432 6.00388 7.80432 7.32256C7.80432 8.64123 8.26226 9.21229 8.26226 9.21229C8.26226 9.21229 7.16022 8.48038 7.16022 7.36913ZM12.3088 7.3078C12.3088 6.19655 10.784 5.53125 10.784 5.53125C10.784 5.53125 11.6661 6.00388 11.6661 7.32256C11.6661 8.64123 11.2082 9.21229 11.2082 9.21229C11.2082 9.21229 12.3088 8.41905 12.3088 7.3078ZM8.20216 7.61099C8.144 6.50126 9.06717 5.50658 9.06717 5.50658C9.06717 5.50658 8.73116 5.96365 8.80018 7.28052C8.82387 7.73267 9.00197 8.40538 9.22635 8.80199V5.57812H10.1639V8.82995C10.3885 8.45948 10.5616 7.82785 10.5857 7.36913C10.6547 6.05226 10.3348 5.50658 10.3348 5.50658C10.3348 5.50658 11.258 6.50126 11.1998 7.61099C11.1652 8.27191 10.6566 8.97089 10.2509 9.42817C10.4481 9.47212 10.7123 9.52571 11.0755 9.59742C11.0833 9.6376 11.0023 9.63573 10.8415 9.63204C10.6639 9.62795 10.389 9.62163 10.0285 9.66718C9.86275 9.83705 9.7474 9.93774 9.7474 9.93774C9.7474 9.93774 9.72916 9.9131 9.70099 9.87902C9.67282 9.9131 9.65459 9.93774 9.65459 9.93774C9.65459 9.93774 9.53923 9.83705 9.3735 9.66719C9.01301 9.62163 8.73806 9.62795 8.56049 9.63204C8.39967 9.63573 8.31873 9.6376 8.32648 9.59742C8.6897 9.52571 8.95392 9.47212 9.15105 9.42817C8.74536 8.97089 8.2368 8.27191 8.20216 7.61099Z" clip-rule="evenodd"/></g></g></svg>

<svg xmlns="http://www.w3.org/2000/svg" fill="none" viewBox="0 0 20 15"><mask id="364_svg__a" width="20" height="15" x="0" y="0" maskUnits="userSpaceOnUse"><path fill="#fff" d="M0 0h20v15H0z"/></mask><g mask="url(#364_svg__a)"><path fill="#F7FCFF" fill-rule="evenodd" d="M0 0v15h20V0H0z" clip-rule="evenodd"/><mask id="364_svg__b" width="20" height="15" x="0" y="0" maskUnits="userSpaceOnUse"><path fill="#fff" fill-rule="evenodd" d="M0 0v15h20V0H0z" clip-rule="evenodd"/></mask><g mask="url(#364_svg__b)"><path fill="#5EAA22" fill-rule="evenodd" d="M0 0v5h20V0H0z" clip-rule="evenodd"/><path fill="#E31D1C" fill-rule="evenodd" d="M0 10v5h20v-5H0z" clip-rule="evenodd"/><path stroke="#F7FCFF" stroke-width=".625" d="M.233 10.854h-1.421m-.015.563v-.326h.463v.315h.467v-.315h-.242m.726.313h-.235v-.306h.496v-.251.557h.224v-.557m.253.033v.526H.716m1.956-.552H1.25m-.014.563v-.326h.463v.315h.467v-.315h-.242m.77.313h-.236v-.306h.496v-.251.557h.225v-.557m.252.033v.526h-.233m1.956-.552h-1.42m-.015.563v-.326h.462v.315h.468v-.315h-.243m.727.313h-.236v-.306h.496v-.251.557h.225v-.557m.252.033v.526h-.233m1.957-.552H6.172m-.014.563v-.326h.462v.315h.468v-.315h-.243m.727.313h-.236v-.306h.496v-.251.557h.225v-.557m.253.033v.526h-.234m1.957-.552H8.61m-.013.563v-.326h.462v.315h.468v-.315h-.243m.771.313h-.236v-.306h.496v-.251.557h.225v-.557m.252.033v.526h-.233m1.956-.552h-1.421m-.014.563v-.326h.462v.315h.467v-.315h-.242m.77.313h-.235v-.306h.496v-.251.557h.224v-.557m.253.033v.526h-.233m1.956-.552h-1.422m-.014.563v-.326h.462v.315h.468v-.315h-.243m.771.313h-.236v-.306h.496v-.251.557h.225v-.557m.252.033v.526h-.233m1.956-.552h-1.42m-.016.563v-.326h.463v.315h.467v-.315h-.242m.727.313h-.236v-.306h.496v-.251.557h.225v-.557m.252.033v.526h-.233m1.957-.552h-1.422m-.015.563v-.326h.463v.315h.468v-.315h-.243m.858.313h-.236v-.306h.496v-.251.557h.224v-.557M.233 3.23h-1.421m-.015.562v-.326h.463v.315h.467v-.315h-.242m.726.313h-.235v-.306h.496v-.251.557h.224v-.557m.253.033v.526H.716m1.956-.551H1.25m-.014.562v-.326h.463v.315h.467v-.315h-.242m.77.313h-.236v-.306h.496v-.251.557h.225v-.557m.252.033v.526h-.233m1.956-.551h-1.42m-.015.562v-.326h.462v.315h.468v-.315h-.243m.727.313h-.236v-.306h.496v-.251.557h.225v-.557m.252.033v.526h-.233m1.957-.551H6.172m-.014.562v-.326h.462v.315h.468v-.315h-.243m.727.313h-.236v-.306h.496v-.251.557h.225v-.557m.253.033v.526h-.234m1.957-.551H8.61m-.013.562v-.326h.462v.315h.468v-.315h-.243m.771.313h-.236v-.306h.496v-.251.557h.225v-.557m.252.033v.526h-.233m1.956-.551h-1.421m-.014.562v-.326h.462v.315h.467v-.315h-.242m.77.313h-.235v-.306h.496v-.251.557h.224v-.557m.253.033v.526h-.233m1.956-.551h-1.422m-.014.562v-.326h.462v.315h.468v-.315h-.243m.771.313h-.236v-.306h.496v-.251.557h.225v-.557m.252.033v.526h-.233m1.956-.551h-1.42m-.016.562v-.326h.463v.315h.467v-.315h-.242m.727.313h-.236v-.306h.496v-.251.557h.225v-.557m.252.033v.526h-.233m1.957-.551h-1.422m-.015.562v-.326h.463v.315h.468v-.315h-.243m.858.313h-.236v-.306h.496v-.251.557h.224v-.557"/><path fill="#E31D1C" fill-rule="evenodd" d="M9.129 5.156s.267.14.54.14c.274 0 .549-.14.549-.14v.188s-.3.14-.566.14c-.266 0-.523-.14-.523-.14v-.188zM7.16 7.37c0-1.111 1.526-1.838 1.526-1.838s-.882.473-.882 1.792c0 1.318.458 1.89.458 1.89S7.16 8.48 7.16 7.368zm5.149-.061c0-1.111-1.525-1.777-1.525-1.777s.882.473.882 1.792c0 1.318-.458 1.89-.458 1.89s1.1-.794 1.1-1.905zm-4.107.303c-.058-1.11.865-2.104.865-2.104s-.336.457-.267 1.774c.024.452.202 1.124.426 1.521V5.578h.938V8.83c.225-.37.398-1.002.422-1.46.069-1.318-.251-1.863-.251-1.863s.923.994.865 2.104c-.035.66-.543 1.36-.949 1.817.197.044.461.098.825.17.007.04-.074.038-.235.034a5.149 5.149 0 00-.813.035c-.165.17-.28.27-.28.27L9.7 9.88a1.55 1.55 0 00-.046.059s-.116-.101-.281-.27a5.148 5.148 0 00-.814-.036c-.16.004-.241.006-.234-.035.364-.071.628-.125.825-.169-.406-.457-.914-1.156-.949-1.817z" clip-rule="evenodd"/></g></g></svg>
